Adwaita++/actions/22/view-unsplit-effect.svg

<svg fill="none" height="22" viewBox="0 0 22 22" width="22" xmlns="http://www.w3.org/2000/svg">
  <g fill="#444">
    <path clip-rule="evenodd" d="m17.5 6.5h-13v11h13zm-12.5-3.5c-1.10457 0-2 .89543-2 2v12c0 1.1046.89543 2 2 2h12c1.1046 0 2-.8954 2-2v-12c0-1.10457-.8954-2-2-2z" fill-rule="evenodd"/>
    <path d="m11.7578 8.02046v.88978h4.4222v-.88978zm2.64 1.76177v.88977h1.7795v-.88977zm.0035 1.79737v.8898h1.7796v-.8898zm-1.7777 1.7439v.8898h3.5573v-.8898zm-.0143 1.7796v.8898h3.5716v-.8898z"/>
    <path d="m13.4991 11.0012-2.002 1.9985.501 3.0003-2.50032-1.5002-2.50028 1.5002.50094-3.0003-1.99844-1.9985h2.4985l1.50017-3.0012 1.49923 3.0003z"/>
  </g>
</svg>

<svg xmlns="http://www.w3.org/2000/svg" fill="none" width="22" height="22" viewBox="0 0 22 22">
 <path fill="#444" fill-rule="evenodd" d="M17.5 6.5H4.5V17.5H17.5V6.5ZM5 3C3.89543 3 3 3.89543 3 5V17C3 18.1046 3.89543 19 5 19H17C18.1046 19 19 18.1046 19 17V5C19 3.89543 18.1046 3 17 3H5Z" clip-rule="evenodd"/>
 <path fill="#444" d="M11.7578 8.02046V8.91024H16.18V8.02046H11.7578V8.02046ZM14.3978 9.78223V10.672H16.1773V9.78223H14.3978ZM14.4013 11.5796V12.4694H16.1809V11.5796H14.4013V11.5796ZM12.6236 13.3235V14.2133H16.1809V13.3235H12.6236ZM12.6093 15.1031V15.9929H16.1809V15.1031H12.6093Z"/>
 <path fill="#444" d="M13.4991 11.0012L11.4971 12.9997L11.9981 16L9.49778 14.4998L6.9975 16L7.49844 12.9997L5.5 11.0012H7.9985L9.49867 8L10.9979 11.0003L13.4991 11.0012Z"/>
</svg>
